X:226
T:Hedge Lane. (p)1679.PLFD.226
M:4/4
L:1/8
Q:1/2=65
S:Playford, Dancing Master,6th Ed.,1679
O:England
H:1679.
Z:Chris Partington.
K:G
G>FG>A F>EF>D|E>DE>A,D2G,2|C>B,C>D E>FG>B,|C>A,D>DG,2G,2|
b>ab>c' a>ga>d|g>fg>af2f2|g>fg>e ^d>^cB>f|g>ee>^de2e2|
E>FG>A B>cd>e|c>BA>d B>AG2|B>AB>c d>ef>g|a>be>g f>ed2|
C>B,C>D E>GA>B|c>BA>G F>E D(g/f/)|e>ee(a/g/) f>ff>e|f>gg>fg2g2:|
